!!!OTL: Von Gott will ich nicht lassen. / Deutsche Volksweise:
!!!ARE: Europa, Mitteleuropa, Deutschland
!!!SCT: A0642C
!!!YEM: Copyright 1995, estate of Helmut Schaffrath.
**kern
*M4/4
*met(c)
*clefC1
*k[b-]
*g:
{4d
=1
4g
4a
4b-
4b-
=2
2a
4a
4d
=3
8eL
8fJ
4g
4g
4f#
=4
2g/
4r}
{4d
=5
4g
4a
4b-
4b-
=6
2a
4a
4d
=7
8eL
8fJ
4g
4g
4f#
=8
2g/
4r
4r}
=9
{4.dd
8ee
4dd
4cc
=10
2.b-
4a
=11
4b-
4cc
4dd
4dd
=12
2cc
4a}
{4a
=13
4b-
4b-
4g
4g
=14
2a
4f
4d
=15
4e
4g/
4g/
4f#
=16
2g/
4r}
==
!!!GTL: Geistliche Volkslieder
!!!AGN: Romanze, Ballade, Lied, religioeses Lied
!! Besardi 1603
!!!ONB: ESAC (Essen Associative Code) Database: ALTDEU
!!!AMT: simple quadruple
!!!AIN: vox
!!!EED: Helmut Schaffrath
!!!EEV: 1.0
!!!URL-scan: https://rosdok.uni-rostock.de/mcrviewer/recordIdentifier/rosdok_ppn738218359/iview2/phys_0825.iview2?x=108.00678923277815&y=516.0863589467481&scale=0.7106933083589261&rotation=0&layout=singlePageLayout&logicalDiv=log_0007
!!!ENC: Anna Maria Matuszewska
!!!EEV: 2024/25/03
*-
